X: 14069
T: Freddy Kimmel's
R: hornpipe
M: 4/4
K: Dmajor
|:AG|FAfe dcBA|GABd gfed|cBAa geBc|(3ded (3cdc (3BcB AG|
FAfe dcBA|GABd gfed|cBAa geBc|d2f2 d2:|
|:(3ABc|d2D2 DFAd|B2G2 EFGd|(3cdc (3BcB AGFE|DEFG ABBA|
d2D2 DFAd|B2G2 E3d|(3cdc (3BcB ABBA|d2f2 d2:|
|:de|f2de f2de|fdad bdad|(3cBA eA fAeA|cdeg bage|
f2de f2de|(3fed ad bdad|cdeg bage|d2f2 d2:|

